X:1
T:Angel’s Hymn (Tans’ur), LM
T:Angel’s Hymn (Tans’ur), LM
T:William Tans’ur (1700-1783)
T:Public Domain Courtesy of the Cyber Hymnal™
C:William Tans’ur (1700-1783)
Z:Public Domain
Z:Courtesy of the Cyber Hymnal™
%%score ( 1 2 ) ( 3 4 )
L:1/8
M:3/4
K:G
V:1 treble 
V:2 treble 
V:3 bass 
V:4 bass 
V:1
 [DG]2 | [DB]4 [EG]2 | [FA]4 [GB]2 | (c2 B2) [FA]2 | G4 [DG]2 | [DB]4 [G^c]2 | [Fd]4 A2 | %7
 d4 [E^c]2 | [Fd]4 [GB]2 | [Gc]4 [Gd]2 | [Ge]4 [Fd]2 | c4 B2 | [FA]4 [Gd]2 | [Gc]4 [GB]2 | %14
 [FA]4 [EG]2 | [Ec]2 [DB]2 [DA]2 | [DG]4 |] %17
V:2
 x2 | x6 | x6 | G4 x2 | G4 x2 | x6 | x4 A2 | (A3 G) x2 | x6 | x6 | x6 | (E2 D2) (DG) | x6 | x6 | %14
 x6 | x6 | x4 |] %17
V:3
 [B,,G,]2 | [D,G,]4 E,2 | D,4 [D,G,]2 | [C,E,]2 D,2 [C,D,]2 | [G,,B,,]4 [B,,G,]2 | %5
 [D,G,]4 [G,,E,]2 | [A,,E,]4 (A,>G,) | ([G,,F,]>[B,,G,]) [A,,A,]2 A,,2 | [A,,D,]4 [G,,G,]2 | %9
 E,4 [B,,G,]2 | C,4 [A,,D,]2 | [G,,E,]2 [A,,F,]2 G,2 | D,4 [B,,D,]2 | [C,E,]4 [D,G,]2 | %14
 D,4 [G,,E,]2 | C,2 [B,,D,]2 [C,D,]2 | [G,,B,,]4 |] %17
V:4
 x2 | x4 (G,,A,,) | D,4 x2 | x2 D,2 x2 | x6 | x6 | x4 A,,2 | x4 A,,2 | x6 | (G,,2 C,2) x2 | %10
 C,4 x2 | x4 (B,,C,) | D,4 x2 | x6 | D,4 x2 | (G,,>A,,) x4 | x4 |] %17

